X:1
T:Seul joyrés
T:Pierre Certon
T:Source : Second livre contenant 25 chansons nouvelles à 4 parties---Paris---P.Attaignant---1536. Editor : André Vierendeels (15/12/17). Notes : Original clefs : C1, C3, C4, F4 Original note values have been halved Editorial accidentals above the staff Square brackets indicate ligatures m 13 in Alto : 2x"G"  notated as 2x"A" in original print
T:Seul joyrés
T:©
T:©
C:Pierre Certon
Z:©
%%score [ 1 [ 2 3 ] 4 ]
L:1/8
Q:1/4=120
M:2/2
K:C
V:1 treble nm="Alto" snm="A"
V:2 treble-8 nm="Tenor 1" snm="T 1"
V:3 treble-8 nm="Tenor 2" snm="T 2"
V:4 bass nm="Bass" snm="B"
V:1
 E4 F2 A2 | GFED C2 C2 | E2 E2 D2 D2 | CDEF GABc | B2 A4 G2 | A4 z2 A2 | A2 A2 E2 E2 | G3 A B2 c2 | %8
w: Seul io- y-|rés _ _ _ _ du|bien que ie vous|gar- * * * * * * *||de, si|à pre- sent n'en|po- vez rien _|
 G2 c3 BAG | A4 G4 | z2 G2 G2 F2 | E4 z4 | z2 G2 G2 G2 | A2 A2 G3 F | G2 A3 GFE | F4 E4 | z4 E4 | %17
w: _ _ _ _ _|a- voir,|il m'en des-|plaist|et plus qu'à|vous me tar- *||* de,|que|
 F2 A2 GFED | C2 C2 E2 E2 | D2 D2 CDEF | GABc B2 A2- |"^#" A2 G2 A4 | z4 E4 | F2 A2 GFED | %24
w: lan- guis- * * * *|siés sans plai- sir|re- cep- * * * *||* * voir,|que|lan- guis- * * * *|
 C2 C2 E2 E2 | D2 D2 CDEF | GABc B2 A2- |"^#" A2 G2 A4- | A8 |] %29
w: siés sans plai- sir|re- cep- * * * *||* * voir.|_|
V:2
 B4 d2 d2 | e8 | z2 G2 B2 B2 | c2 c2 B4 | d4 e4 | c2 f2 f2 f2 | e4 z2 e2 | e4 e4- | e2 e2 f2 e2- | %9
w: Seul io- y-|rés|du bien que|ie vous gar-||de, si à pre-|sent n'en|po- vez|_ rien _ _|
 e2 d2 e4 | z2 e2 e2 d2 | e4 z4 | z2 e2 e2 e2 | c2 f2 e4- | e2 dc d2 c2- |"^b" c2 B2 c4 | z4 B4 | %17
w: _ a- voir,|il m'en des-|plaist|et plus qu'à|vous me tar-||* * de,|que|
 d2 d2 e4- | e4 z2 G2 | B2 B2 c2 c2 | B2 B2 d2 d2 | e2 e2 c4 | z4 B4 | d2 d2 e4- | e4 z2 G2 | %25
w: lan- guis- siés|_ sans|plai- sir re- cep-|voir, sans plai- sir|re- cep- voir,|que|lan- guis- siés|_ sans|
 B2 B2 c2 c2 | B2 B2 d2 d2 | e2 e2 c4- | c8 |] %29
w: plai- sir re- rep-|voir, sans plai- sir|re- cep- voir.|_|
V:3
 G4 A2 A2 | B4 z2 A2 | A2 E2 G2 G2 | A4 G2 d2- | dcBA B4 | A8 | z2 A2 A2 A2 | E2 E2 G3 A | %8
w: Seul io- y-|rés du|bien que ie vous|gar- * *||de,|si à pre-|sent n'en po- vez|
 B2 c2 A4- | A4 B4- | B4 z4 | z2 G2 G2 F2 | E2 B2 B2 c2 | A2 d2 B2 c2- | cBAG F2 G2- | G2 F2 G4 | %16
w: rien _ a-|* voir,|_|il m'en des-|plaist et plus qu'à|vous me tar- *||* * de,|
 z4 G4 | A2 A2 B4 | z2 A2 A2 E2 | G2 G2 A4 | G2 d3 cBA | B4 A4 | z4 G4 | A2 A2 B4 | z2 A2 A2 E2 | %25
w: que|lan- guis- siés|sans plai- sir|re- cep- voir,|sans pla- * * *|* sir,|que|lan- guis- siés|sans pla- sir|
 G2 G2 A4 | G2 d3 c BA | B4 A4- | A8 |] %29
w: re- cep- voir,|sans plai sir re- *|cep- voir.|_|
V:4
 E,4 D,2 F,2 | E,4 z2 A,,2 | C,2 C,2 B,,2 B,,2 | A,,B,,C,D, E,F, G,2 | D,2 F,2 E,4 | %5
w: Seul io- y-|rés du|bien que ie vous|gar- * * * * * *||
 A,,2 D,2 D,2 D,2 | A,,2 A,,2 C,3 D, | E,2 A,,2 E,4- | E,2 A,3 G,F,E, | F,4 E,4- | E,4 z4 | %11
w: de, si à pre-|sent n'en po- *|* vez rien|_ a- * * *|* voir,|_|
 z2 E,2 E,2 D,2 | E,2 E,2 E,2 E,2 | F,2 D,2 E,4 | C,2 F,3 E,D,C, | D,4 C,4 | z4 E,4 | D,2 F,2 E,4 | %18
w: il m'en des-|plaist et plus qu'à|vous me tar-||* de,||lan- guis- siés|
 z2 A,,2 C,2 C,2 | B,,2 B,,2 A,,B,,C,D, | E,F, G,2 D,2 F,2 | E,4 A,,4 | z4 E,4 | D,2 F,2 E,4 | %24
w: sans plai- sir|re- cep- * * * *||* voir,|que|lan- guis- siés|
 z2 A,,2 C,2 C,2 | B,,2 B,,2 A,,B,,C,D, | E,F, G,2 D,2 F,2 | E,4 A,,4- | A,,8 |] %29
w: sans plai- sir|re- cep- * * * *||* voir.|_|

